X: 2426
T: Ballinahulla, The
R: polka
M: 2/4
K: Gmajor
|:d|G>A GB|dB AB|c/d/c/B/ cA|ed Bd|
G>A GB|dB AB|c/d/c/B/ cA|AG G:|2 B/A/G G2||
g2 fg/f/|ed Bd|e/f/e/d/ cA|ed B/A/G|
gG fG|eG dB|c/d/c/B/ cA|1 B/A/G G2:|2 B/A/G G||

